X:2
T: Die wiedergefundene Schwester (Suedeli - Ballade)
N: Q0072A
O: Mitteleuropa, Schweiz, Greyerz, Brienzwyler
R: Ballade, Entfuehrung, Adelige als Dienstmagd, Rueckkehr
M: 4/4
L: 1/8
K: D
F2 | A2F2G2E2 | F2D2E2
D2 | D2F2G2F2 | E2C2D2
F2 | A2F2G2E2 | F2DDE2
D2 | D2F2G2FF | E2C2D2

